scenes/dorf/img/building-wrapbattle-ice.svg

<?xml version="1.0" encoding="UTF-8"?>
<svg width="570px" height="277px" viewBox="0 0 570 277" version="1.1" xmlns="http://www.w3.org/2000/svg" xmlns:xlink="http://www.w3.org/1999/xlink">
    <!-- Generator: Sketch 41 (35326) - http://www.bohemiancoding.com/sketch -->
    <title>Slice 1</title>
    <desc>Created with Sketch.</desc>
    <defs>
        <linearGradient x1="50%" y1="30.7908897%" x2="50%" y2="77.7051086%" id="linearGradient-1">
            <stop stop-color="#FFFFFF" offset="22%"></stop>
            <stop stop-color="#FFFFFF" stop-opacity="0.67" offset="33%"></stop>
            <stop stop-color="#FFFFFF" stop-opacity="0" offset="79%"></stop>
        </linearGradient>
        <linearGradient x1="50.0021852%" y1="16.7221186%" x2="50.0021852%" y2="96.2035273%" id="linearGradient-2">
            <stop stop-color="#FFFFFF" offset="7%"></stop>
            <stop stop-color="#F6F3EC" offset="62%"></stop>
            <stop stop-color="#F6F3EC" stop-opacity="0" offset="100%"></stop>
        </linearGradient>
        <linearGradient x1="50%" y1="16.7220604%" x2="50%" y2="96.216394%" id="linearGradient-3">
            <stop stop-color="#F6F3EC" offset="7%"></stop>
            <stop stop-color="#F6F3EC" offset="62%"></stop>
            <stop stop-color="#F6F3EC" stop-opacity="0" offset="100%"></stop>
        </linearGradient>
        <linearGradient x1="34474%" y1="24650%" x2="34474%" y2="26629%" id="linearGradient-4">
            <stop stop-color="#FFFFFF" offset="22%"></stop>
            <stop stop-color="#FFFFFF" stop-opacity="0.67" offset="33%"></stop>
            <stop stop-color="#FFFFFF" stop-opacity="0" offset="79%"></stop>
        </linearGradient>
        <linearGradient x1="44298%" y1="24390%" x2="44298%" y2="26369%" id="linearGradient-5">
            <stop stop-color="#FFFFFF" offset="22%"></stop>
            <stop stop-color="#FFFFFF" stop-opacity="0.67" offset="33%"></stop>
            <stop stop-color="#FFFFFF" stop-opacity="0" offset="79%"></stop>
        </linearGradient>
    </defs>
    <g id="Page-1" stroke="none" stroke-width="1" fill="none" fill-rule="evenodd">
        <g id="Group" opacity="0.48" transform="translate(171.000000, 0.000000)">
            <polygon id="Shape" fill="#75CEF4" opacity="0.5" points="312.98 254.85 306.83 159.53 294.13 105.36 304.25 52.47 236.93 17.29 212.96 0 176.36 0 148.5 4.76 73.78 43.84 36.11 67.02 32.88 181.3 60.07 254.85"></polygon>
            <polygon id="Shape" fill="#00BFF0" opacity="0.5" style="mix-blend-mode: multiply;" points="298.35 254.85 286.58 157.79 239.82 167.13 238.74 103.91 158.73 156.32 64.99 62.94 54.39 164.71 20.21 106.45 0.24 254.85"></polygon>
        </g>
        <path d="M198.9,255.8 C159.57,248.49 159.74,239.18 143.01,232.88 C136.138811,230.255152 128.541189,230.255152 121.67,232.88 C114.57,235.55 109.03,240.65 101.9,243.18 C93.7404744,246.083162 84.9143702,246.559029 76.49,244.55 C70.72,243.14 65.04,240.55 59.13,241.13 C48.06,242.2 38.83,254.13 28.06,251.3 C30.43,255.87 34.38,259.44 38.69,262.25 C53.15,271.65 71.3,273 88.55,273.09 C112.03,273.25 134.55,269.32 157.55,266.91 C167.24,265.91 177.13,263.1 186.55,260.53 C188.55,260 198.62,255.74 198.9,255.8 Z" id="Shape" fill="url(#linearGradient-1)"></path>
        <polygon id="Shape" fill="#75CEF4" opacity="0.48" points="484.08 254.85 475.25 52.47 319.5 4.76 304.81 6.57 183.7 34.31 150.48 83.84 111.72 108.32 96.03 254.85"></polygon>
        <polygon id="Shape" fill="#E6F6FD" opacity="0.5" points="94.09 254.85 95.28 89.52 132.62 73.33 178.07 34.09 189.25 18.85 283.34 11.2 258.42 116.2 358.23 136.89 448.61 254.85"></polygon>
        <polygon id="Shape" fill="#75CEF4" opacity="0.5" points="484.08 254.85 464.5 194.3 399.22 102.56 383.72 43.67 283.65 18.98 202.96 124.45 132.72 101.5 109.51 254.85 129.42 254.85"></polygon>
        <path d="M228.81,276.6 C171.51,235.78 168.09,216.91 136.93,203.6 C129.851498,200.412497 122.162538,198.808498 114.4,198.9 C106.637462,198.808498 98.9485025,200.412497 91.87,203.6 C60.72,216.91 57.3,235.78 0,276.6 L228.81,276.6 Z" id="Shape" fill="url(#linearGradient-2)"></path>
        <circle id="Oval" fill="#FFDF8A" cx="109.12" cy="190.73" r="1.27"></circle>
        <path d="M114.78,179.1 C114.78,179.1 112.05,173.4 109.56,172.22 C109.56,172.22 110.87,177.56 109.44,179.22 L114.78,179.1 Z" id="Shape" fill="#E64436"></path>
        <path d="M108.73,182.19 C108.73,184.023585 110.216415,185.51 112.05,185.51 L112.05,185.51 C113.883585,185.51 115.37,184.023585 115.37,182.19 L115.37,182.19 C115.37,180.356415 113.883585,178.87 112.05,178.87 L112.05,178.87 C110.216415,178.87 108.73,180.356415 108.73,182.19 L108.73,182.19 Z" id="Shape" fill="#FFDF8A"></path>
        <rect id="Rectangle-path" fill="#FFFFFF" x="108.25" y="178.57" width="7.49" height="1.7" rx="0.44"></rect>
        <circle id="Oval" fill="#333333" cx="113.48" cy="181.71" r="0.59"></circle>
        <circle id="Oval" fill="#333333" cx="110.75" cy="181.71" r="0.59"></circle>
        <rect id="Rectangle-path" fill="#E64436" x="114.12" y="186.79" width="6.63" height="1.88"></rect>
        <path d="M108.89,193.42 C108.89,195.256347 110.378653,196.745 112.215,196.745 C114.051347,196.745 115.54,195.256347 115.54,193.42 L115.54,188.83 C115.54,186.993653 114.051347,185.505 112.215,185.505 C110.378653,185.505 108.89,186.993653 108.89,188.83 L108.89,193.42 Z" id="Shape" fill="#E64436"></path>
        <polyline id="Shape" fill="#FFFFFF" points="114.11 195.48 114.11 201.18 112.37 201.18 112.37 195.48"></polyline>
        <polyline id="Shape" fill="#E64436" points="114.11 195.48 114.11 198.51 112.37 198.51 112.37 195.48"></polyline>
        <path d="M112.25,200.86 L114.25,200.86 C114.92,202.17 116.66,202.17 116.9,201.22 C116.9,201.22 117.83,203.02 113.65,202.76 C113.186512,202.754012 112.752599,202.531223 112.477635,202.158058 C112.202672,201.784893 112.11842,201.304459 112.25,200.86 L112.25,200.86 Z" id="Shape" fill="#333333"></path>
        <polyline id="Shape" fill="#FFFFFF" points="109.92 195.48 109.92 201.18 111.66 201.18 111.66 195.48"></polyline>
        <polyline id="Shape" fill="#E64436" points="109.92 195.48 109.92 198.51 111.66 198.51 111.66 195.48"></polyline>
        <path d="M111.78,200.86 L109.78,200.86 C109.11,202.17 107.37,202.17 107.13,201.22 C107.13,201.22 106.2,203.02 110.38,202.76 C110.843488,202.754012 111.277401,202.531223 111.552365,202.158058 C111.827328,201.784893 111.91158,201.304459 111.78,200.86 Z" id="Shape" fill="#333333"></path>
        <path d="M112.21,185.51 L112.21,194.45" id="Shape" stroke="#FFFFFF" stroke-width="0.602857232"></path>
        <rect id="Rectangle-path" fill="#333333" x="108.89" y="191.76" width="6.65" height="1.66"></rect>
        <rect id="Rectangle-path" fill="#FFD400" x="111.34" y="191.6" width="1.74" height="1.9"></rect>
        <circle id="Oval" fill="#FFFFFF" cx="109.04" cy="171.66" r="0.71"></circle>
        <path d="M115.37,181.48 L116.48,179.98 C116.48,179.98 117.11,183.86 114.98,183.38 L115.37,181.48 Z" id="Shape" fill="#FFDF8A"></path>
        <path d="M109,181.48 L107.89,179.98 C107.89,179.98 107.26,183.86 109.39,183.38 L109,181.48 Z" id="Shape" fill="#FFDF8A"></path>
        <circle id="Oval" fill="#FFDF8A" cx="120.67" cy="187.74" r="1.27"></circle>
        <path d="M118.22,184.74 C118.22,184.74 118.27,180.86 120.67,179.28 C120.67,179.28 122.78,180.51 122.96,184.74 L120.9,184.74 L120.9,202.62 L120.36,202.62 L120.36,184.74 L118.22,184.74 Z" id="Shape" fill="#808080"></path>
        <path d="M569.79,266.83 C512.49,226.01 509.07,207.14 477.91,193.83 C463.544663,187.558465 447.215337,187.558465 432.85,193.83 C401.69,207.11 398.28,225.99 340.97,266.83 L569.79,266.83 Z" id="Shape" fill="url(#linearGradient-3)"></path>
        <path d="M430.16,258.4 C390.83,251.09 391,241.78 374.27,235.48 C367.398811,232.855152 359.801189,232.855152 352.93,235.48 C345.83,238.15 340.29,243.25 333.16,245.78 C325.000474,248.683162 316.17437,249.159029 307.75,247.15 C301.98,245.74 296.3,243.15 290.39,243.73 C279.32,244.8 270.09,256.73 259.32,253.9 C261.69,258.47 265.64,262.04 269.95,264.85 C284.41,274.27 302.56,275.59 319.81,275.7 C343.29,275.86 365.81,271.93 388.81,269.52 C398.5,268.52 408.39,265.71 417.81,263.14 C419.81,262.58 429.88,258.34 430.16,258.4 Z" id="Shape" fill="url(#linearGradient-4)"></path>
        <path d="M528.4,255.8 C489.07,248.49 489.24,239.18 472.51,232.88 C465.638811,230.255152 458.041189,230.255152 451.17,232.88 C444.07,235.55 438.53,240.65 431.4,243.18 C423.242561,246.077882 414.420237,246.550258 406,244.54 C400.23,243.13 394.55,240.54 388.64,241.12 C377.57,242.19 368.34,254.12 357.57,251.29 C359.94,255.86 363.89,259.43 368.2,262.24 C382.66,271.66 400.81,272.98 418.06,273.09 C441.54,273.25 464.06,269.32 487.06,266.91 C496.75,265.91 506.64,263.1 516.06,260.53 C518,260 528.12,255.74 528.4,255.8 Z" id="Shape" fill="url(#linearGradient-5)"></path>
        <g id="elf" transform="translate(356.000000, 217.000000)">
            <path d="M6.82,24.07 C6.82,24.07 3.65,26.31 0.96,25.29 C0.96,25.29 0.72,22.85 4.04,20.23 L5.25,21.9 L22.12,9.66 L22.43,10.09 L5.56,22.33 L6.82,24.07 Z" id="Shape" fill="#808080"></path>
            <path d="M5.35,9.09 C5.35,9.09 6.73,2.66 8.08,0.25 C8.08,0.25 8.5,4.5 10.62,5.04 L5.35,9.09 Z" id="Shape" fill="#F27B20"></path>
            <path d="M7.46,11.38 C7.96900888,12.0990047 8.74290935,12.5862323 9.61130062,12.7344027 C10.4796919,12.8825731 11.3713695,12.6795371 12.09,12.17 L12.09,12.17 C12.8090047,11.6609911 13.2962323,10.8870907 13.4444027,10.0186994 C13.5925731,9.15030811 13.3895371,8.2586305 12.88,7.54 L12.88,7.54 C12.3709911,6.82099525 11.5970907,6.33376772 10.7286994,6.18559729 C9.86030811,6.03742686 8.9686305,6.24046288 8.25,6.75 L8.25,6.75 C7.53099525,7.25900888 7.04376772,8.03290935 6.89559729,8.90130062 C6.74742686,9.76969189 6.95046288,10.6613695 7.46,11.38 L7.46,11.38 Z" id="Shape" fill="#FFDF8A"></path>
            <path d="M7.21,7.95 C7.9282003,6.52941376 9.55361299,5.81849338 11.0842739,6.25547632 C12.6149348,6.69245926 13.6200376,8.15435616 13.48,9.74 C11.2213063,10.5126519 8.72034441,9.79866116 7.21,7.95 L7.21,7.95 Z" id="Shape" fill="#333333"></path>
            <path d="M9.9,10.72 L9.9,7.72 C9.9,7.72 12.66,10.52 10.64,11.37 L9.9,10.72 Z" id="Shape" fill="#FFDF8A"></path>
            <rect id="Rectangle-path" fill="#FFFFFF" transform="translate(8.529984, 7.262601) rotate(-35.270000) translate(-8.529984, -7.262601) " x="4.7849844" y="6.41260132" width="7.49" height="1.7" rx="0.44"></rect>
            <circle id="Oval" fill="#333333" transform="translate(8.220584, 10.282531) rotate(-35.270000) translate(-8.220584, -10.282531) " cx="8.22058374" cy="10.2825309" r="0.59"></circle>
            <path d="M14.07,20.46 C14.7559499,21.4299761 15.9072699,21.9603211 17.0902688,21.8512591 C18.2732678,21.7421971 19.3082199,21.0102972 19.8052689,19.9312591 C20.3023179,18.8522209 20.18595,17.5899761 19.5,16.62 L16.85,12.87 C16.1640501,11.9000239 15.0127301,11.369679 13.8297312,11.478741 C12.6467323,11.5878031 11.6117802,12.3197029 11.1147312,13.398741 C10.6176823,14.4777791 10.7340501,15.7400239 11.42,16.71 L14.07,20.46 Z" id="Shape" fill="#F27B20"></path>
            <polyline id="Shape" fill="#FFFFFF" points="16.82 22.47 16.82 26.58 18.56 26.58 18.56 22.47"></polyline>
            <path d="M18.16,20.24 C17,20.24 16.82,20.82 16.82,21.42 L16.82,23.91 L18.56,23.91 L18.56,21.1 L18.16,20.24 Z" id="Shape" fill="#F27B20"></path>
            <path d="M18.68,26.27 L16.68,26.27 C16.01,27.58 14.27,27.58 14.03,26.63 C14.03,26.63 13.1,28.43 17.27,28.17 C17.7352548,28.1671247 18.1720754,27.9456338 18.4493422,27.5720118 C18.726609,27.1983899 18.8120432,26.7161333 18.68,26.27 L18.68,26.27 Z" id="Shape" fill="#333333"></path>
            <rect id="Rectangle-path" fill="#333333" transform="translate(16.313910, 17.901342) rotate(-35.270000) translate(-16.313910, -17.901342) " x="12.9889098" y="17.071342" width="6.65" height="1.66"></rect>
            <rect id="Rectangle-path" fill="#FFD400" transform="translate(13.821734, 19.611737) rotate(-35.270000) translate(-13.821734, -19.611737) " x="13.3217341" y="18.6617374" width="0.47" height="1.9"></rect>
            <path d="M7.75,11 L5.75,13.54 C5.47,13.74 5.75,14.14 6.16,13.85 L9.16,11.7 L7.75,11 Z" id="Shape" fill="#FFDF8A"></path>
            <polygon id="Shape" fill="#F27B20" points="8.86 18.29 12.65 15.33 13.52 17.26 9.66 20.09"></polygon>
            <circle id="Oval" fill="#FFDF8A" transform="translate(9.018351, 19.390191) rotate(-35.270000) translate(-9.018351, -19.390191) " cx="9.01835075" cy="19.3901911" r="1.27"></circle>
            <path d="M14.9,9.29 C15.6447884,9.39625104 16.3938358,9.126594 16.9,8.57 C16.5518338,7.92334561 15.9123273,7.48509177 15.1836032,7.39375305 C14.454879,7.30241433 13.7269927,7.56927834 13.23,8.11 C13.5679588,8.7459821 14.1876636,9.18385735 14.9,9.29 L14.9,9.29 Z" id="Shape" fill="#333333"></path>
        </g>
    </g>
</svg>

<svg width="570" height="277" viewBox="0 0 570 277" xmlns="http://www.w3.org/2000/svg"><title>Slice 1</title><defs><linearGradient x1="50%" y1="30.791%" x2="50%" y2="77.705%" id="a"><stop stop-color="#FFF" offset="22%"/><stop stop-color="#FFF" stop-opacity=".67" offset="33%"/><stop stop-color="#FFF" stop-opacity="0" offset="79%"/></linearGradient><linearGradient x1="50.002%" y1="16.722%" x2="50.002%" y2="96.204%" id="b"><stop stop-color="#FFF" offset="7%"/><stop stop-color="#F6F3EC" offset="62%"/><stop stop-color="#F6F3EC" stop-opacity="0" offset="100%"/></linearGradient><linearGradient x1="50%" y1="16.722%" x2="50%" y2="96.216%" id="c"><stop stop-color="#F6F3EC" offset="7%"/><stop stop-color="#F6F3EC" offset="62%"/><stop stop-color="#F6F3EC" stop-opacity="0" offset="100%"/></linearGradient><linearGradient x1="34474%" y1="24650%" x2="34474%" y2="26629%" id="d"><stop stop-color="#FFF" offset="22%"/><stop stop-color="#FFF" stop-opacity=".67" offset="33%"/><stop stop-color="#FFF" stop-opacity="0" offset="79%"/></linearGradient><linearGradient x1="44298%" y1="24390%" x2="44298%" y2="26369%" id="e"><stop stop-color="#FFF" offset="22%"/><stop stop-color="#FFF" stop-opacity=".67" offset="33%"/><stop stop-color="#FFF" stop-opacity="0" offset="79%"/></linearGradient></defs><g fill="none" fill-rule="evenodd"><g opacity=".48"><path fill="#75CEF4" opacity=".5" d="M483.98 254.85l-6.15-95.32-12.7-54.17 10.12-52.89-67.32-35.18L383.96 0h-36.6L319.5 4.76l-74.72 39.08-37.67 23.18-3.23 114.28 27.19 73.55z"/><path fill="#00BFF0" opacity=".5" style="mix-blend-mode:multiply" d="M469.35 254.85l-11.77-97.06-46.76 9.34-1.08-63.22-80.01 52.41-93.74-93.38-10.6 101.77-34.18-58.26-19.97 148.4z"/></g><path d="M198.9 255.8c-39.33-7.31-39.16-16.62-55.89-22.92a29.9 29.9 0 0 0-21.34 0c-7.1 2.67-12.64 7.77-19.77 10.3a44.8 44.8 0 0 1-25.41 1.37c-5.77-1.41-11.45-4-17.36-3.42-11.07 1.07-20.3 13-31.07 10.17 2.37 4.57 6.32 8.14 10.63 10.95 14.46 9.4 32.61 10.75 49.86 10.84 23.48.16 46-3.77 69-6.18 9.69-1 19.58-3.81 29-6.38 2-.53 12.07-4.79 12.35-4.73z" fill="url(#a)"/><path fill="#75CEF4" opacity=".48" d="M484.08 254.85l-8.83-202.38L319.5 4.76l-14.69 1.81L183.7 34.31l-33.22 49.53-38.76 24.48-15.69 146.53z"/><path fill="#E6F6FD" opacity=".5" d="M94.09 254.85l1.19-165.33 37.34-16.19 45.45-39.24 11.18-15.24 94.09-7.65-24.92 105 99.81 20.69 90.38 117.96z"/><path fill="#75CEF4" opacity=".5" d="M484.08 254.85L464.5 194.3l-65.28-91.74-15.5-58.89-100.07-24.69-80.69 105.47-70.24-22.95-23.21 153.35h19.91z"/><path d="M228.81 276.6c-57.3-40.82-60.72-59.69-91.88-73a53.34 53.34 0 0 0-22.53-4.7 53.34 53.34 0 0 0-22.53 4.7C60.72 216.91 57.3 235.78 0 276.6h228.81z" fill="url(#b)"/><circle fill="#FFDF8A" cx="109.12" cy="190.73" r="1.27"/><path d="M114.78 179.1s-2.73-5.7-5.22-6.88c0 0 1.31 5.34-.12 7l5.34-.12z" fill="#E64436"/><path d="M108.73 182.19a3.32 3.32 0 0 0 6.64 0 3.32 3.32 0 0 0-6.64 0z" fill="#FFDF8A"/><rect fill="#FFF" x="108.25" y="178.57" width="7.49" height="1.7" rx=".44"/><circle fill="#333" cx="113.48" cy="181.71" r=".59"/><circle fill="#333" cx="110.75" cy="181.71" r=".59"/><path fill="#E64436" d="M114.12 186.79h6.63v1.88h-6.63z"/><path d="M108.89 193.42a3.325 3.325 0 1 0 6.65 0v-4.59a3.325 3.325 0 1 0-6.65 0v4.59z" fill="#E64436"/><path fill="#FFF" d="M114.11 195.48v5.7h-1.74v-5.7"/><path fill="#E64436" d="M114.11 195.48v3.03h-1.74v-3.03"/><path d="M112.25 200.86h2c.67 1.31 2.41 1.31 2.65.36 0 0 .93 1.8-3.25 1.54a1.48 1.48 0 0 1-1.4-1.9z" fill="#333"/><path fill="#FFF" d="M109.92 195.48v5.7h1.74v-5.7"/><path fill="#E64436" d="M109.92 195.48v3.03h1.74v-3.03"/><path d="M111.78 200.86h-2c-.67 1.31-2.41 1.31-2.65.36 0 0-.93 1.8 3.25 1.54a1.48 1.48 0 0 0 1.4-1.9z" fill="#333"/><path d="M112.21 185.51v8.94" stroke="#FFF" stroke-width=".603"/><path fill="#333" d="M108.89 191.76h6.65v1.66h-6.65z"/><path fill="#FFD400" d="M111.34 191.6h1.74v1.9h-1.74z"/><circle fill="#FFF" cx="109.04" cy="171.66" r=".71"/><path d="M115.37 181.48l1.11-1.5s.63 3.88-1.5 3.4l.39-1.9zm-6.37 0l-1.11-1.5s-.63 3.88 1.5 3.4l-.39-1.9z" fill="#FFDF8A"/><circle fill="#FFDF8A" cx="120.67" cy="187.74" r="1.27"/><path d="M118.22 184.74s.05-3.88 2.45-5.46c0 0 2.11 1.23 2.29 5.46h-2.06v17.88h-.54v-17.88h-2.14z" fill="gray"/><path d="M569.79 266.83c-57.3-40.82-60.72-59.69-91.88-73a56.31 56.31 0 0 0-45.06 0c-31.16 13.28-34.57 32.16-91.88 73h228.82z" fill="url(#c)"/><path d="M430.16 258.4c-39.33-7.31-39.16-16.62-55.89-22.92a29.9 29.9 0 0 0-21.34 0c-7.1 2.67-12.64 7.77-19.77 10.3a44.8 44.8 0 0 1-25.41 1.37c-5.77-1.41-11.45-4-17.36-3.42-11.07 1.07-20.3 13-31.07 10.17 2.37 4.57 6.32 8.14 10.63 10.95 14.46 9.42 32.61 10.74 49.86 10.85 23.48.16 46-3.77 69-6.18 9.69-1 19.58-3.81 29-6.38 2-.56 12.07-4.8 12.35-4.74z" fill="url(#d)"/><path d="M528.4 255.8c-39.33-7.31-39.16-16.62-55.89-22.92a29.9 29.9 0 0 0-21.34 0c-7.1 2.67-12.64 7.77-19.77 10.3a44.8 44.8 0 0 1-25.4 1.36c-5.77-1.41-11.45-4-17.36-3.42-11.07 1.07-20.3 13-31.07 10.17 2.37 4.57 6.32 8.14 10.63 10.95 14.46 9.42 32.61 10.74 49.86 10.85 23.48.16 46-3.77 69-6.18 9.69-1 19.58-3.81 29-6.38 1.94-.53 12.06-4.79 12.34-4.73z" fill="url(#e)"/><g transform="translate(356 217)"><path d="M6.82 24.07S3.65 26.31.96 25.29c0 0-.24-2.44 3.08-5.06l1.21 1.67L22.12 9.66l.31.43L5.56 22.33l1.26 1.74z" fill="gray"/><path d="M5.35 9.09S6.73 2.66 8.08.25c0 0 .42 4.25 2.54 4.79L5.35 9.09z" fill="#F27B20"/><path d="M7.46 11.38a3.32 3.32 0 0 0 4.63.79 3.32 3.32 0 0 0 .79-4.63 3.32 3.32 0 0 0-4.63-.79 3.32 3.32 0 0 0-.79 4.63z" fill="#FFDF8A"/><path d="M7.21 7.95a3.32 3.32 0 0 1 6.27 1.79 5.71 5.71 0 0 1-6.27-1.79z" fill="#333"/><path d="M9.9 10.72v-3s2.76 2.8.74 3.65l-.74-.65z" fill="#FFDF8A"/><rect fill="#FFF" transform="rotate(-35.27 8.53 7.263)" x="4.785" y="6.413" width="7.49" height="1.7" rx=".44"/><circle fill="#333" transform="rotate(-35.27 8.22 10.283)" cx="8.221" cy="10.283" r=".59"/><path d="M14.07 20.46a3.325 3.325 0 1 0 5.43-3.84l-2.65-3.75a3.325 3.325 0 1 0-5.43 3.84l2.65 3.75z" fill="#F27B20"/><path fill="#FFF" d="M16.82 22.47v4.11h1.74v-4.11"/><path d="M18.16 20.24c-1.16 0-1.34.58-1.34 1.18v2.49h1.74V21.1l-.4-.86z" fill="#F27B20"/><path d="M18.68 26.27h-2c-.67 1.31-2.41 1.31-2.65.36 0 0-.93 1.8 3.24 1.54a1.48 1.48 0 0 0 1.41-1.9zm-5.56-7.127l5.43-3.84.958 1.356-5.43 3.84z" fill="#333"/><path fill="#FFD400" d="M12.865 19.125l.384-.271 1.097 1.55-.384.272z"/><path d="M7.75 11l-2 2.54c-.28.2 0 .6.41.31l3-2.15-1.41-.7z" fill="#FFDF8A"/><path fill="#F27B20" d="M8.86 18.29l3.79-2.96.87 1.93-3.86 2.83z"/><circle fill="#FFDF8A" transform="rotate(-35.27 9.018 19.39)" cx="9.018" cy="19.39" r="1.27"/><path d="M14.9 9.29a2.27 2.27 0 0 0 2-.72 2.27 2.27 0 0 0-3.67-.46 2.27 2.27 0 0 0 1.67 1.18z" fill="#333"/></g></g></svg>
